d1 $ stack
   [ n (irand 22) # s "sax"
        # sustain 0.15
   , jux ((0.125 <~) . iter 5)
        $ n (irand 26) # s "~ alphabet ~"
        # gain 0.55
        # sustain 0.2
   , slow 3 $ n (run 13) # s "bottle*7 [~ bottle ~] [bottle bottle ~ bottle] ~ bottle*2"
        # speed "[0.3,0.1,0.5,0.6]/3,[7,4,9,5,6]/5"
        # bpf (scale 255 4096 $ slow 3 saw)
        # bpq 1.3
        # gain 0.8
   ]

d1 silence
