d1 $ stack
   [ foldEvery [5, 3, 2] (0.125 <~)
        $ jux (iter 8)
        $ stut' 3 (0.125) (|*| crush "3 5")
        $ s "superhat:1*8" # n (run 13) # sustain "0.25!7 1.7" # accelerate "[0.8 -0.3]/5"
   , midinote (slow 2 $ (run 8) * 7 + 50) # s "supergong" # decay "[1 0.2]/4"
        # voice "[0.5 0]/8" # sustain (slow 16 $ scale 5 0.5 $ saw1) # gain "0.6"
   ]

d1 silence
