d1 $ stut 5 0.5 0.4 $ jux (0.1 <~)
   $ n "[c2 bf3 gf4 ef5 a4 df3]/3" # s "[superpwm supersaw supersquare]/24" # sustain "0.5"
   # voice 0.7 # semitone 7.9 # resonance 0.5 # lfo 3 # pitch1 0.5 # speed "[[0.25 1], [3 5 2]/3]"
   # room 5 # size 0.9

d1 silence
