d1 $ palindrome
   $ foldEvery [3, 4, 5] (0.25 <~) $ jux (iter 5)
   $ n "[c2 e3 g4 c5 c4 c3]*4/3" # s "superchip"
   # sustain "0.1" # gain (slow 4 $ scale 0.4 0.6 $ tri)
   # pitch2 "[1.2 1.5 2 3]" # pitch3 "[1.44 2.25 4 9]"
   # voice (slow 4 "0 0.25 0.5 0.75") # slide "[0 0.1]/8" # speed "-4"
   # delay "0.5" # delayfeedback "0.7" # delaytime "0.7"

d1 silence
