d1 $ spread slow [7, 11, 8, 13] $ stut 4 0.4 0.3
   $ jux' [rev, (0.25 <~), id, (0.25 ~>), rev]
   $ (striate' 97 0.05 $ sound "moan" # coarse 32)
   # speed "[[0.2 0.3 0.5 0.4 0.6]/3, [2 5 4 3]/2, [11 9 13]/5, [6 [4 7] 5]/3, [0.5 0.2 0.4 0.1]/7]"

d1 silence
