d1 $ slow 11 $ striate' 1024 0.01
   $ sound "{[alphabet:5 alphabet:20 alphabet:2 alphabet:10],[alphabet:11 alphabet:14 alphabet:21 alphabet:4]/3}"
   # delay 0.6 # delaytime 0.4 # delayfeedback 0.55
   # gain (scale 0.3 0.7 $ fast 2 saw) # crush 5
   # speed "[[0.5 0.1 0.1 0.3 0.2]/3, [2 4 1 3]/5, [13 11 1 1 9]/2]"

d1 silence
