d1 $ jux ((0.13 <~) . iter 8)
   $ stut 3 0.7 0.2
   $ (striate' 3 0.01 $ sound "[[bd bd [bd*5 bd]/2 bd*13], [cp*5 [cp cp*7]/4 cp*2]]")
   # speed "[[1 0.8 0.4 0.6 0.3 0.7]/2, [2 6 4 8 7 9]/5, [13 8 15 6 11]/3]"
   # room 0.5 # size 0.9

d1 silence
