d1 $ smash 3 [2,3,2,4,2,2,3,2]
   $ jux' [iter 5, (0.125 <~), id, iter 3, (0.125 ~>)]
   $ (striate 5 $ n (irand 13) # s "bass1")
   # speed "[[0.6,0.5,0.4]/3,[1,2,3,4]/4,[7,9,11,10,8]/5,1*21]%7"

d1 silence
