d1 $ brak $ rev $ every 2 (|+| up "2") $ every 3 (|*| up "3")
   $ sound "[bd bd:1(6, 1) bd(6, 1) bd:1, bd:3 bd:3(3,1) bd:3]/1.3 [sd(5,2)]*1.3"
   # crush "4" |=| up "0 1 9 6 3" # shape "0.5" # speed "[1, 1.5]" # gain "0.65"

d1 silence
