d1 $ stack
   [ stut' 5 (0.125/2) ((|*| speed "3") . (jux ((0.125/8) <~)))
        $ sound "bd:2(3,8)" # vowel "[a [[e o] i]]/2"
        # lpf (slow 8 $ sine1 * 128 + 512) # lpq "0.6"
   , stut' 5 (0.125/2) (|*| speed (every 2 (0.25 <~) $ "1 2 3 4"))
        $ sound "odx(3,8)"
   ]

d1 silence
